%
(Header)
(Generated by gcodetools from Inkscape.)
(Using default header. To add your own header create file "header" in the output dir.)
M3
(Header end.)
G21 (All units in mm)

(Start cutting path id: path1082)
(Change tool to Cylindrical cutter)

G00 Z5.000000
G00 X60.082031 Y70.689450

G01 Z-0.400000 F100.0(Penetrate)
G03 X60.047719 Y70.206988 Z-0.400000 I30.194698 J-2.389844 F800.000000
G03 X59.470703 Y61.017580 Z-0.400000 I15059.045949 J-950.191638
G02 X58.836452 Y51.837430 Z-0.400000 I-698.342206 J43.636060
G02 X58.726562 Y51.185550 Z-0.400000 I-3.609202 J0.273215
G02 X58.063306 Y49.617187 Z-0.400000 I-5.830408 J1.541236
G02 X56.753906 Y47.906250 Z-0.400000 I-8.296226 J4.992680
G02 X52.699791 Y45.270483 Z-0.400000 I-7.665690 J7.354985
G02 X46.417969 Y44.169920 Z-0.400000 I-6.281822 J17.377497
G02 X40.399113 Y45.216870 Z-0.400000 I0.000000 J17.824511
G02 X36.484375 Y47.734380 Z-0.400000 I3.490860 J9.730770
G02 X34.170387 Y54.408643 Z-0.400000 I5.959041 J5.804284
G02 X38.445312 Y66.378910 Z-0.400000 I26.782866 J-2.816447
G03 X39.111004 Y67.491641 Z-0.400000 I-12.868742 J8.454222
G01 X39.078125 Y67.546880 Z-0.400000
G03 X38.225235 Y67.408348 Z-0.400000 I-0.000000 J-2.694728
G03 X31.867188 Y65.140620 Z-0.400000 I51.951122 J-155.702695
G03 X22.955494 Y61.161055 Z-0.400000 I30.526208 J-80.327334
G03 X15.791016 Y56.835940 Z-0.400000 I28.976446 J-56.095453
G03 X1.547893 Y37.434508 Z-0.400000 I21.377926 J-30.622971
G03 X4.005859 Y19.423830 Z-0.400000 I20.316937 J-6.400354
G03 X8.991242 Y13.427418 Z-0.400000 I27.970804 J18.184152
G03 X17.236328 Y6.847660 Z-0.400000 I42.047264 J44.233537
G03 X24.309142 Y2.412024 Z-0.400000 I86.063382 J129.375018
G03 X24.669922 Y2.458980 Z-0.400000 I0.150306 J0.254620
G01 X24.677165 Y2.499768 Z-0.400000
G03 X23.994141 Y3.945310 Z-0.400000 I-50.716942 J-23.079811
G02 X22.385948 Y8.284233 Z-0.400000 I20.643458 J10.118853
G02 X21.921875 Y11.925780 Z-0.400000 I13.984454 J3.632502
G02 X22.565949 Y15.589761 Z-0.400000 I10.780800 J-0.006508
G02 X24.208984 Y18.242190 Z-0.400000 I7.130835 J-2.582061
G02 X25.863560 Y19.601447 Z-0.400000 I6.402767 J-6.107206
G02 X27.876953 Y20.574220 Z-0.400000 I5.168301 J-8.127081
G02 X29.189183 Y20.886975 Z-0.400000 I2.219006 J-6.401062
G02 X31.181641 Y21.021480 Z-0.400000 I2.000842 J-14.814344
G02 X33.182110 Y20.912665 Z-0.400000 I0.011336 J-18.234475
G02 X34.470703 Y20.660160 Z-0.400000 I-0.851623 J-7.760279
G02 X38.964172 Y18.622955 Z-0.400000 I-4.589044 J-16.096300
G02 X42.814453 Y15.269530 Z-0.400000 I-9.723400 J-15.051143
G03 X43.770909 Y14.215243 Z-0.400000 I21.166441 J18.241328
G03 X43.861328 Y14.173830 Z-0.400000 I0.097195 J0.092798
G03 X43.933667 Y14.219616 Z-0.400000 I0.003742 J0.074126
G03 X44.326172 Y15.296880 Z-0.400000 I-12.506828 J5.167045
G02 X45.184604 Y17.187204 Z-0.400000 I8.317839 J-2.637212
G02 X46.322266 Y18.587890 Z-0.400000 I5.662825 J-3.437088
G02 X48.062993 Y19.635828 Z-0.400000 I3.327149 J-3.556991
G02 X50.609375 Y20.064450 Z-0.400000 I2.560169 J-7.431438
G02 X52.525202 Y19.951439 Z-0.400000 I0.029824 J-15.789954
G02 X53.671875 Y19.697270 Z-0.400000 I-0.713976 J-5.934752
G02 X61.871523 Y14.880658 Z-0.400000 I-6.948814 J-21.217160
G02 X68.628906 Y5.880860 Z-0.400000 I-21.206694 J-22.959520
G02 X69.982904 Y2.688781 Z-0.400000 I-25.100105 J-12.530030
G02 X70.197266 Y1.437500 Z-0.400000 I-3.544838 J-1.251281
G03 X70.257781 Y1.185991 Z-0.400000 I0.552908 J0.000000
G03 X70.357422 Y1.125000 Z-0.400000 I0.099641 J0.050895
G03 X70.457856 Y1.185890 Z-0.400000 I0.000000 J0.113275
G03 X70.519531 Y1.437500 Z-0.400000 I-0.482399 J0.251610
G02 X70.733893 Y2.688781 Z-0.400000 I3.759199 J-0.000000
G02 X72.087891 Y5.880860 Z-0.400000 I26.454103 J-9.337951
G02 X78.845275 Y14.880660 Z-0.400000 I27.964015 J-13.959673
G02 X87.044922 Y19.697270 Z-0.400000 I15.148477 J-16.400580
G02 X88.191588 Y19.951408 Z-0.400000 I1.861214 J-5.683820
G02 X90.107422 Y20.064450 Z-0.400000 I1.886018 J-15.672964
G02 X92.653809 Y19.635827 Z-0.400000 I-0.013787 J-7.860080
G02 X94.394531 Y18.587890 Z-0.400000 I-1.586408 J-4.604892
G02 X95.534218 Y17.188586 Z-0.400000 I-4.570650 J-4.886412
G02 X96.375000 Y15.343750 Z-0.400000 I-7.191028 J-4.391316
G03 X96.755402 Y14.299306 Z-0.400000 I12.544494 J3.977394
G03 X96.839844 Y14.220700 Z-0.400000 I0.128000 J0.052844
G03 X96.944774 Y14.245202 Z-0.400000 I0.032449 J0.097969
G03 X97.902344 Y15.269530 Z-0.400000 I-12.182963 J12.348719
G02 X101.752622 Y18.622954 Z-0.400000 I13.573746 J-11.697790
G02 X106.246090 Y20.660160 Z-0.400000 I9.082483 J-14.059015
G02 X107.534688 Y20.912673 Z-0.400000 I2.140023 J-7.506559
G02 X109.535160 Y21.021480 Z-0.400000 I1.989135 J-18.127066
G02 X111.527605 Y20.886998 Z-0.400000 I-0.008385 J-14.951262
G02 X112.839840 Y20.574220 Z-0.400000 I-0.906281 J-6.711294
G02 X114.852184 Y19.601365 Z-0.400000 I-3.147255 J-9.077766
G02 X116.505860 Y18.242190 Z-0.400000 I-4.759304 J-7.476111
G02 X118.148794 Y15.589760 Z-0.400000 I-5.487058 J-5.233761
G02 X118.792970 Y11.925780 Z-0.400000 I-10.141578 J-3.671640
G02 X118.329903 Y8.284239 Z-0.400000 I-14.461013 J-0.011316
G02 X116.722660 Y3.945310 Z-0.400000 I-22.209724 J5.759867
G03 X116.039655 Y2.499751 Z-0.400000 I49.994376 J-24.505721
G01 X116.046880 Y2.458980 Z-0.400000
G03 X116.416114 Y2.410871 Z-0.400000 I0.215443 J0.212529
G03 X123.480470 Y6.845700 Z-0.400000 I-77.037747 J130.559365
G03 X128.100531 Y10.204753 Z-0.400000 I-39.087303 J58.617673
G03 X131.519530 Y13.205080 Z-0.400000 I-27.642180 J34.947628
G03 X139.501184 Y25.670795 Z-0.400000 I-22.635637 J23.281476
G03 X140.066410 Y37.398440 Z-0.400000 I-19.266480 J6.806011
G03 X131.648124 Y51.323511 Z-0.400000 I-26.677679 J-6.620631
G03 X108.849610 Y65.140620 Z-0.400000 I-49.003779 J-55.139680
G03 X102.491128 Y67.402803 Z-0.400000 I-56.117466 J-147.666213
G03 X101.599610 Y67.546880 Z-0.400000 I-0.891518 J-2.686226
G01 X101.553766 Y67.488284 Z-0.400000
G03 X101.669910 Y67.265620 Z-0.400000 I0.517201 J0.128154
G02 X103.645145 Y64.395015 Z-0.400000 I-11.306774 J-9.894950
G02 X105.804680 Y59.449220 Z-0.400000 I-31.927324 J-16.885137
G02 X106.153695 Y51.439233 Z-0.400000 I-13.083738 J-4.582689
G02 X102.443350 Y46.279300 Z-0.400000 I-8.436654 J2.152569
G02 X99.001896 Y44.768897 Z-0.400000 I-6.393880 J9.892583
G02 X94.298818 Y44.169920 Z-0.400000 I-4.703078 J18.164430
G02 X88.015819 Y45.270314 Z-0.400000 I-0.000000 J18.487448
G02 X83.960928 Y47.906250 Z-0.400000 I3.610080 J9.990238
G02 X82.652674 Y49.617217 Z-0.400000 I6.958032 J6.675958
G02 X81.990224 Y51.185550 Z-0.400000 I5.184422 J3.113927
G02 X81.880335 Y51.837429 Z-0.400000 I3.499341 J0.925093
G02 X81.246084 Y61.017580 Z-0.400000 I697.830228 J52.824680
G03 X80.669077 Y70.206988 Z-0.400000 I-15077.396984 J-942.104718
G03 X80.634756 Y70.689450 Z-0.400000 I-30.155858 J-1.902727
G03 X80.484254 Y70.733007 Z-0.400000 I-0.083466 J-0.006606
G03 X77.773428 Y66.863280 Z-0.400000 I60.363762 J-45.170456
G01 X74.953115 Y62.554690 Z-0.400000
G01 X70.357412 Y62.554690 Z-0.400000
G01 X65.763662 Y62.554690 Z-0.400000
G01 X62.941396 Y66.863280 Z-0.400000
G03 X60.232379 Y70.732916 Z-0.400000 I-63.672452 J-41.692120
G03 X60.082021 Y70.689450 Z-0.400000 I-0.066989 J-0.050065
G01 X60.082031 Y70.689450 Z-0.400000
G00 Z5.000000

(End cutting path id: path1082)


(Start cutting path id: path1082)
(Change tool to Cylindrical cutter)

G00 Z5.000000
G00 X60.082031 Y70.689450

G01 Z-0.800000 F100.0(Penetrate)
G03 X60.047719 Y70.206988 Z-0.800000 I30.194698 J-2.389844 F800.000000
G03 X59.470703 Y61.017580 Z-0.800000 I15059.045949 J-950.191638
G02 X58.836452 Y51.837430 Z-0.800000 I-698.342206 J43.636060
G02 X58.726562 Y51.185550 Z-0.800000 I-3.609202 J0.273215
G02 X58.063306 Y49.617187 Z-0.800000 I-5.830408 J1.541236
G02 X56.753906 Y47.906250 Z-0.800000 I-8.296226 J4.992680
G02 X52.699791 Y45.270483 Z-0.800000 I-7.665690 J7.354985
G02 X46.417969 Y44.169920 Z-0.800000 I-6.281822 J17.377497
G02 X40.399113 Y45.216870 Z-0.800000 I0.000000 J17.824511
G02 X36.484375 Y47.734380 Z-0.800000 I3.490860 J9.730770
G02 X34.170387 Y54.408643 Z-0.800000 I5.959041 J5.804284
G02 X38.445312 Y66.378910 Z-0.800000 I26.782866 J-2.816447
G03 X39.111004 Y67.491641 Z-0.800000 I-12.868742 J8.454222
G01 X39.078125 Y67.546880 Z-0.800000
G03 X38.225235 Y67.408348 Z-0.800000 I-0.000000 J-2.694728
G03 X31.867188 Y65.140620 Z-0.800000 I51.951122 J-155.702695
G03 X22.955494 Y61.161055 Z-0.800000 I30.526208 J-80.327334
G03 X15.791016 Y56.835940 Z-0.800000 I28.976446 J-56.095453
G03 X1.547893 Y37.434508 Z-0.800000 I21.377926 J-30.622971
G03 X4.005859 Y19.423830 Z-0.800000 I20.316937 J-6.400354
G03 X8.991242 Y13.427418 Z-0.800000 I27.970804 J18.184152
G03 X17.236328 Y6.847660 Z-0.800000 I42.047264 J44.233537
G03 X24.309142 Y2.412024 Z-0.800000 I86.063382 J129.375018
G03 X24.669922 Y2.458980 Z-0.800000 I0.150306 J0.254620
G01 X24.677165 Y2.499768 Z-0.800000
G03 X23.994141 Y3.945310 Z-0.800000 I-50.716942 J-23.079811
G02 X22.385948 Y8.284233 Z-0.800000 I20.643458 J10.118853
G02 X21.921875 Y11.925780 Z-0.800000 I13.984454 J3.632502
G02 X22.565949 Y15.589761 Z-0.800000 I10.780800 J-0.006508
G02 X24.208984 Y18.242190 Z-0.800000 I7.130835 J-2.582061
G02 X25.863560 Y19.601447 Z-0.800000 I6.402767 J-6.107206
G02 X27.876953 Y20.574220 Z-0.800000 I5.168301 J-8.127081
G02 X29.189183 Y20.886975 Z-0.800000 I2.219006 J-6.401062
G02 X31.181641 Y21.021480 Z-0.800000 I2.000842 J-14.814344
G02 X33.182110 Y20.912665 Z-0.800000 I0.011336 J-18.234475
G02 X34.470703 Y20.660160 Z-0.800000 I-0.851623 J-7.760279
G02 X38.964172 Y18.622955 Z-0.800000 I-4.589044 J-16.096300
G02 X42.814453 Y15.269530 Z-0.800000 I-9.723400 J-15.051143
G03 X43.770909 Y14.215243 Z-0.800000 I21.166441 J18.241328
G03 X43.861328 Y14.173830 Z-0.800000 I0.097195 J0.092798
G03 X43.933667 Y14.219616 Z-0.800000 I0.003742 J0.074126
G03 X44.326172 Y15.296880 Z-0.800000 I-12.506828 J5.167045
G02 X45.184604 Y17.187204 Z-0.800000 I8.317839 J-2.637212
G02 X46.322266 Y18.587890 Z-0.800000 I5.662825 J-3.437088
G02 X48.062993 Y19.635828 Z-0.800000 I3.327149 J-3.556991
G02 X50.609375 Y20.064450 Z-0.800000 I2.560169 J-7.431438
G02 X52.525202 Y19.951439 Z-0.800000 I0.029824 J-15.789954
G02 X53.671875 Y19.697270 Z-0.800000 I-0.713976 J-5.934752
G02 X61.871523 Y14.880658 Z-0.800000 I-6.948814 J-21.217160
G02 X68.628906 Y5.880860 Z-0.800000 I-21.206694 J-22.959520
G02 X69.982904 Y2.688781 Z-0.800000 I-25.100105 J-12.530030
G02 X70.197266 Y1.437500 Z-0.800000 I-3.544838 J-1.251281
G03 X70.257781 Y1.185991 Z-0.800000 I0.552908 J0.000000
G03 X70.357422 Y1.125000 Z-0.800000 I0.099641 J0.050895
G03 X70.457856 Y1.185890 Z-0.800000 I0.000000 J0.113275
G03 X70.519531 Y1.437500 Z-0.800000 I-0.482399 J0.251610
G02 X70.733893 Y2.688781 Z-0.800000 I3.759199 J-0.000000
G02 X72.087891 Y5.880860 Z-0.800000 I26.454103 J-9.337951
G02 X78.845275 Y14.880660 Z-0.800000 I27.964015 J-13.959673
G02 X87.044922 Y19.697270 Z-0.800000 I15.148477 J-16.400580
G02 X88.191588 Y19.951408 Z-0.800000 I1.861214 J-5.683820
G02 X90.107422 Y20.064450 Z-0.800000 I1.886018 J-15.672964
G02 X92.653809 Y19.635827 Z-0.800000 I-0.013787 J-7.860080
G02 X94.394531 Y18.587890 Z-0.800000 I-1.586408 J-4.604892
G02 X95.534218 Y17.188586 Z-0.800000 I-4.570650 J-4.886412
G02 X96.375000 Y15.343750 Z-0.800000 I-7.191028 J-4.391316
G03 X96.755402 Y14.299306 Z-0.800000 I12.544494 J3.977394
G03 X96.839844 Y14.220700 Z-0.800000 I0.128000 J0.052844
G03 X96.944774 Y14.245202 Z-0.800000 I0.032449 J0.097969
G03 X97.902344 Y15.269530 Z-0.800000 I-12.182963 J12.348719
G02 X101.752622 Y18.622954 Z-0.800000 I13.573746 J-11.697790
G02 X106.246090 Y20.660160 Z-0.800000 I9.082483 J-14.059015
G02 X107.534688 Y20.912673 Z-0.800000 I2.140023 J-7.506559
G02 X109.535160 Y21.021480 Z-0.800000 I1.989135 J-18.127066
G02 X111.527605 Y20.886998 Z-0.800000 I-0.008385 J-14.951262
G02 X112.839840 Y20.574220 Z-0.800000 I-0.906281 J-6.711294
G02 X114.852184 Y19.601365 Z-0.800000 I-3.147255 J-9.077766
G02 X116.505860 Y18.242190 Z-0.800000 I-4.759304 J-7.476111
G02 X118.148794 Y15.589760 Z-0.800000 I-5.487058 J-5.233761
G02 X118.792970 Y11.925780 Z-0.800000 I-10.141578 J-3.671640
G02 X118.329903 Y8.284239 Z-0.800000 I-14.461013 J-0.011316
G02 X116.722660 Y3.945310 Z-0.800000 I-22.209724 J5.759867
G03 X116.039655 Y2.499751 Z-0.800000 I49.994376 J-24.505721
G01 X116.046880 Y2.458980 Z-0.800000
G03 X116.416114 Y2.410871 Z-0.800000 I0.215443 J0.212529
G03 X123.480470 Y6.845700 Z-0.800000 I-77.037747 J130.559365
G03 X128.100531 Y10.204753 Z-0.800000 I-39.087303 J58.617673
G03 X131.519530 Y13.205080 Z-0.800000 I-27.642180 J34.947628
G03 X139.501184 Y25.670795 Z-0.800000 I-22.635637 J23.281476
G03 X140.066410 Y37.398440 Z-0.800000 I-19.266480 J6.806011
G03 X131.648124 Y51.323511 Z-0.800000 I-26.677679 J-6.620631
G03 X108.849610 Y65.140620 Z-0.800000 I-49.003779 J-55.139680
G03 X102.491128 Y67.402803 Z-0.800000 I-56.117466 J-147.666213
G03 X101.599610 Y67.546880 Z-0.800000 I-0.891518 J-2.686226
G01 X101.553766 Y67.488284 Z-0.800000
G03 X101.669910 Y67.265620 Z-0.800000 I0.517201 J0.128154
G02 X103.645145 Y64.395015 Z-0.800000 I-11.306774 J-9.894950
G02 X105.804680 Y59.449220 Z-0.800000 I-31.927324 J-16.885137
G02 X106.153695 Y51.439233 Z-0.800000 I-13.083738 J-4.582689
G02 X102.443350 Y46.279300 Z-0.800000 I-8.436654 J2.152569
G02 X99.001896 Y44.768897 Z-0.800000 I-6.393880 J9.892583
G02 X94.298818 Y44.169920 Z-0.800000 I-4.703078 J18.164430
G02 X88.015819 Y45.270314 Z-0.800000 I-0.000000 J18.487448
G02 X83.960928 Y47.906250 Z-0.800000 I3.610080 J9.990238
G02 X82.652674 Y49.617217 Z-0.800000 I6.958032 J6.675958
G02 X81.990224 Y51.185550 Z-0.800000 I5.184422 J3.113927
G02 X81.880335 Y51.837429 Z-0.800000 I3.499341 J0.925093
G02 X81.246084 Y61.017580 Z-0.800000 I697.830228 J52.824680
G03 X80.669077 Y70.206988 Z-0.800000 I-15077.396984 J-942.104718
G03 X80.634756 Y70.689450 Z-0.800000 I-30.155858 J-1.902727
G03 X80.484254 Y70.733007 Z-0.800000 I-0.083466 J-0.006606
G03 X77.773428 Y66.863280 Z-0.800000 I60.363762 J-45.170456
G01 X74.953115 Y62.554690 Z-0.800000
G01 X70.357412 Y62.554690 Z-0.800000
G01 X65.763662 Y62.554690 Z-0.800000
G01 X62.941396 Y66.863280 Z-0.800000
G03 X60.232379 Y70.732916 Z-0.800000 I-63.672452 J-41.692120
G03 X60.082021 Y70.689450 Z-0.800000 I-0.066989 J-0.050065
G01 X60.082031 Y70.689450 Z-0.800000
G00 Z5.000000

(End cutting path id: path1082)


(Start cutting path id: path1082)
(Change tool to Cylindrical cutter)

G00 Z5.000000
G00 X60.082031 Y70.689450

G01 Z-1.000000 F100.0(Penetrate)
G03 X60.047719 Y70.206988 Z-1.000000 I30.194698 J-2.389844 F800.000000
G03 X59.470703 Y61.017580 Z-1.000000 I15059.045949 J-950.191638
G02 X58.836452 Y51.837430 Z-1.000000 I-698.342206 J43.636060
G02 X58.726562 Y51.185550 Z-1.000000 I-3.609202 J0.273215
G02 X58.063306 Y49.617187 Z-1.000000 I-5.830408 J1.541236
G02 X56.753906 Y47.906250 Z-1.000000 I-8.296226 J4.992680
G02 X52.699791 Y45.270483 Z-1.000000 I-7.665690 J7.354985
G02 X46.417969 Y44.169920 Z-1.000000 I-6.281822 J17.377497
G02 X40.399113 Y45.216870 Z-1.000000 I0.000000 J17.824511
G02 X36.484375 Y47.734380 Z-1.000000 I3.490860 J9.730770
G02 X34.170387 Y54.408643 Z-1.000000 I5.959041 J5.804284
G02 X38.445312 Y66.378910 Z-1.000000 I26.782866 J-2.816447
G03 X39.111004 Y67.491641 Z-1.000000 I-12.868742 J8.454222
G01 X39.078125 Y67.546880 Z-1.000000
G03 X38.225235 Y67.408348 Z-1.000000 I-0.000000 J-2.694728
G03 X31.867188 Y65.140620 Z-1.000000 I51.951122 J-155.702695
G03 X22.955494 Y61.161055 Z-1.000000 I30.526208 J-80.327334
G03 X15.791016 Y56.835940 Z-1.000000 I28.976446 J-56.095453
G03 X1.547893 Y37.434508 Z-1.000000 I21.377926 J-30.622971
G03 X4.005859 Y19.423830 Z-1.000000 I20.316937 J-6.400354
G03 X8.991242 Y13.427418 Z-1.000000 I27.970804 J18.184152
G03 X17.236328 Y6.847660 Z-1.000000 I42.047264 J44.233537
G03 X24.309142 Y2.412024 Z-1.000000 I86.063382 J129.375018
G03 X24.669922 Y2.458980 Z-1.000000 I0.150306 J0.254620
G01 X24.677165 Y2.499768 Z-1.000000
G03 X23.994141 Y3.945310 Z-1.000000 I-50.716942 J-23.079811
G02 X22.385948 Y8.284233 Z-1.000000 I20.643458 J10.118853
G02 X21.921875 Y11.925780 Z-1.000000 I13.984454 J3.632502
G02 X22.565949 Y15.589761 Z-1.000000 I10.780800 J-0.006508
G02 X24.208984 Y18.242190 Z-1.000000 I7.130835 J-2.582061
G02 X25.863560 Y19.601447 Z-1.000000 I6.402767 J-6.107206
G02 X27.876953 Y20.574220 Z-1.000000 I5.168301 J-8.127081
G02 X29.189183 Y20.886975 Z-1.000000 I2.219006 J-6.401062
G02 X31.181641 Y21.021480 Z-1.000000 I2.000842 J-14.814344
G02 X33.182110 Y20.912665 Z-1.000000 I0.011336 J-18.234475
G02 X34.470703 Y20.660160 Z-1.000000 I-0.851623 J-7.760279
G02 X38.964172 Y18.622955 Z-1.000000 I-4.589044 J-16.096300
G02 X42.814453 Y15.269530 Z-1.000000 I-9.723400 J-15.051143
G03 X43.770909 Y14.215243 Z-1.000000 I21.166441 J18.241328
G03 X43.861328 Y14.173830 Z-1.000000 I0.097195 J0.092798
G03 X43.933667 Y14.219616 Z-1.000000 I0.003742 J0.074126
G03 X44.326172 Y15.296880 Z-1.000000 I-12.506828 J5.167045
G02 X45.184604 Y17.187204 Z-1.000000 I8.317839 J-2.637212
G02 X46.322266 Y18.587890 Z-1.000000 I5.662825 J-3.437088
G02 X48.062993 Y19.635828 Z-1.000000 I3.327149 J-3.556991
G02 X50.609375 Y20.064450 Z-1.000000 I2.560169 J-7.431438
G02 X52.525202 Y19.951439 Z-1.000000 I0.029824 J-15.789954
G02 X53.671875 Y19.697270 Z-1.000000 I-0.713976 J-5.934752
G02 X61.871523 Y14.880658 Z-1.000000 I-6.948814 J-21.217160
G02 X68.628906 Y5.880860 Z-1.000000 I-21.206694 J-22.959520
G02 X69.982904 Y2.688781 Z-1.000000 I-25.100105 J-12.530030
G02 X70.197266 Y1.437500 Z-1.000000 I-3.544838 J-1.251281
G03 X70.257781 Y1.185991 Z-1.000000 I0.552908 J0.000000
G03 X70.357422 Y1.125000 Z-1.000000 I0.099641 J0.050895
G03 X70.457856 Y1.185890 Z-1.000000 I0.000000 J0.113275
G03 X70.519531 Y1.437500 Z-1.000000 I-0.482399 J0.251610
G02 X70.733893 Y2.688781 Z-1.000000 I3.759199 J-0.000000
G02 X72.087891 Y5.880860 Z-1.000000 I26.454103 J-9.337951
G02 X78.845275 Y14.880660 Z-1.000000 I27.964015 J-13.959673
G02 X87.044922 Y19.697270 Z-1.000000 I15.148477 J-16.400580
G02 X88.191588 Y19.951408 Z-1.000000 I1.861214 J-5.683820
G02 X90.107422 Y20.064450 Z-1.000000 I1.886018 J-15.672964
G02 X92.653809 Y19.635827 Z-1.000000 I-0.013787 J-7.860080
G02 X94.394531 Y18.587890 Z-1.000000 I-1.586408 J-4.604892
G02 X95.534218 Y17.188586 Z-1.000000 I-4.570650 J-4.886412
G02 X96.375000 Y15.343750 Z-1.000000 I-7.191028 J-4.391316
G03 X96.755402 Y14.299306 Z-1.000000 I12.544494 J3.977394
G03 X96.839844 Y14.220700 Z-1.000000 I0.128000 J0.052844
G03 X96.944774 Y14.245202 Z-1.000000 I0.032449 J0.097969
G03 X97.902344 Y15.269530 Z-1.000000 I-12.182963 J12.348719
G02 X101.752622 Y18.622954 Z-1.000000 I13.573746 J-11.697790
G02 X106.246090 Y20.660160 Z-1.000000 I9.082483 J-14.059015
G02 X107.534688 Y20.912673 Z-1.000000 I2.140023 J-7.506559
G02 X109.535160 Y21.021480 Z-1.000000 I1.989135 J-18.127066
G02 X111.527605 Y20.886998 Z-1.000000 I-0.008385 J-14.951262
G02 X112.839840 Y20.574220 Z-1.000000 I-0.906281 J-6.711294
G02 X114.852184 Y19.601365 Z-1.000000 I-3.147255 J-9.077766
G02 X116.505860 Y18.242190 Z-1.000000 I-4.759304 J-7.476111
G02 X118.148794 Y15.589760 Z-1.000000 I-5.487058 J-5.233761
G02 X118.792970 Y11.925780 Z-1.000000 I-10.141578 J-3.671640
G02 X118.329903 Y8.284239 Z-1.000000 I-14.461013 J-0.011316
G02 X116.722660 Y3.945310 Z-1.000000 I-22.209724 J5.759867
G03 X116.039655 Y2.499751 Z-1.000000 I49.994376 J-24.505721
G01 X116.046880 Y2.458980 Z-1.000000
G03 X116.416114 Y2.410871 Z-1.000000 I0.215443 J0.212529
G03 X123.480470 Y6.845700 Z-1.000000 I-77.037747 J130.559365
G03 X128.100531 Y10.204753 Z-1.000000 I-39.087303 J58.617673
G03 X131.519530 Y13.205080 Z-1.000000 I-27.642180 J34.947628
G03 X139.501184 Y25.670795 Z-1.000000 I-22.635637 J23.281476
G03 X140.066410 Y37.398440 Z-1.000000 I-19.266480 J6.806011
G03 X131.648124 Y51.323511 Z-1.000000 I-26.677679 J-6.620631
G03 X108.849610 Y65.140620 Z-1.000000 I-49.003779 J-55.139680
G03 X102.491128 Y67.402803 Z-1.000000 I-56.117466 J-147.666213
G03 X101.599610 Y67.546880 Z-1.000000 I-0.891518 J-2.686226
G01 X101.553766 Y67.488284 Z-1.000000
G03 X101.669910 Y67.265620 Z-1.000000 I0.517201 J0.128154
G02 X103.645145 Y64.395015 Z-1.000000 I-11.306774 J-9.894950
G02 X105.804680 Y59.449220 Z-1.000000 I-31.927324 J-16.885137
G02 X106.153695 Y51.439233 Z-1.000000 I-13.083738 J-4.582689
G02 X102.443350 Y46.279300 Z-1.000000 I-8.436654 J2.152569
G02 X99.001896 Y44.768897 Z-1.000000 I-6.393880 J9.892583
G02 X94.298818 Y44.169920 Z-1.000000 I-4.703078 J18.164430
G02 X88.015819 Y45.270314 Z-1.000000 I-0.000000 J18.487448
G02 X83.960928 Y47.906250 Z-1.000000 I3.610080 J9.990238
G02 X82.652674 Y49.617217 Z-1.000000 I6.958032 J6.675958
G02 X81.990224 Y51.185550 Z-1.000000 I5.184422 J3.113927
G02 X81.880335 Y51.837429 Z-1.000000 I3.499341 J0.925093
G02 X81.246084 Y61.017580 Z-1.000000 I697.830228 J52.824680
G03 X80.669077 Y70.206988 Z-1.000000 I-15077.396984 J-942.104718
G03 X80.634756 Y70.689450 Z-1.000000 I-30.155858 J-1.902727
G03 X80.484254 Y70.733007 Z-1.000000 I-0.083466 J-0.006606
G03 X77.773428 Y66.863280 Z-1.000000 I60.363762 J-45.170456
G01 X74.953115 Y62.554690 Z-1.000000
G01 X70.357412 Y62.554690 Z-1.000000
G01 X65.763662 Y62.554690 Z-1.000000
G01 X62.941396 Y66.863280 Z-1.000000
G03 X60.232379 Y70.732916 Z-1.000000 I-63.672452 J-41.692120
G03 X60.082021 Y70.689450 Z-1.000000 I-0.066989 J-0.050065
G01 X60.082031 Y70.689450 Z-1.000000
G00 Z5.000000

(End cutting path id: path1082)


(Footer)
M5
G00 X0.0000 Y0.0000
M2
(Using default footer. To add your own footer create file "footer" in the output dir.)
(end)
%